X:1
T:One Kiss
T:One Kiss
T:From "New Moon"
T:Sigmund Romberg
T:Oscar Hammerstein II
C:Sigmund Romberg
Z:All Rights Reserved
L:1/4
M:3/4
K:F
V:1 treble 
%%MIDI program 40
%%MIDI control 7 100
%%MIDI control 10 64
V:1
 z2 A |"F" ^G2 A | E3/2 F/ A/c/ | e3- | e z f | e2 f |"Abdim" d2 e |"C7" c3- | c z B |"Gm" A2 B | %10
w: One|kiss, one|man to save it|for|* One|love for|him a-|lone.|* One|word, one|
"D+" ^F3/2 G/ B/d/ |"Gm7" f3- | f z e |"C7" d2 c | G2"C+7" ^G |"F" A3- | A z A | ^G2 A | %18
w: vow and no- thing|more|* To|tell him|I'm his|own.|* One|mag- ic|
 E3/2 F/ A/c/ | e3- | e z f | e2 f |"A7" a2 e |"Dm" f3- |"Dm7b5" f z F |"D+" ^F2 G |"Abdim" ^G2 e | %27
w: night with- in his|arms,|* With|pas- sion|flow'r un-|furled.|* But|I will|try to|
"F" d c e |"D7" d c A |"Gm" B d f |"C7" d e a |"F" f3- | f z z |] %33
w: love on- ly|one man And|no oth- er|man in the|world.-||

